lib/brands/logos/i-os.svg

<svg xmlns="http://www.w3.org/2000/svg" fill="none" aria-hidden="true" viewBox="0 0 157 87"><g id="iOS"><path id="Vector" fill="black" d="M4.61842 78.9875H16.9523V26.4822H4.61842V78.9875ZM10.7607 19.5966C14.6243 19.5966 17.6458 16.6245 17.6458 12.9096C17.6458 9.14502 14.6243 6.17307 10.7607 6.17307C6.94658 6.17307 3.92505 9.14514 3.92505 12.9096C3.92505 16.6247 6.94658 19.5966 10.7607 19.5966ZM58.0175 6.3213C37.1642 6.3213 24.0867 20.5375 24.0867 43.2738C24.0867 66.0102 37.1629 80.1769 58.0175 80.1769C78.8212 80.1769 91.8987 66.0102 91.8987 43.2738C91.8987 20.5375 78.8225 6.3213 58.0175 6.3213ZM58.0175 17.2188C70.7475 17.2188 78.8707 27.3237 78.8707 43.2736C78.8707 59.1738 70.7473 69.279 58.0175 69.279C45.2379 69.279 37.1642 59.1741 37.1642 43.2736C37.1642 27.3239 45.2382 17.2188 58.0175 17.2188ZM97.1016 58.8771C97.6465 72.0535 108.445 80.1767 124.89 80.1767C142.177 80.1767 153.075 71.6568 153.075 58.0845C153.075 47.4349 146.933 41.4412 132.42 38.1227L124.197 36.2404C115.43 34.16 111.814 31.3862 111.814 26.6309C111.814 20.6869 117.262 16.7242 125.336 16.7242C133.509 16.7242 139.106 20.7365 139.701 27.4235H151.886C151.589 14.8419 141.187 6.32168 125.436 6.32168C109.882 6.32168 98.8356 14.891 98.8356 27.5718C98.8356 37.7758 105.077 44.1162 118.252 47.138L127.515 49.3175C136.53 51.4475 140.195 54.4195 140.195 59.571C140.195 65.515 134.202 69.7749 125.584 69.7749C116.866 69.7749 110.278 65.4655 109.486 58.8775H97.1022L97.1016 58.8771Z"/></g></svg>

<svg xmlns="http://www.w3.org/2000/svg" fill="none" aria-hidden="true" viewBox="0 0 157 87"><path fill="#000" d="M4.618 78.987h12.334V26.482H4.618v52.505Zm6.143-59.39c3.863 0 6.885-2.972 6.885-6.687 0-3.765-3.022-6.737-6.885-6.737-3.814 0-6.836 2.972-6.836 6.737 0 3.715 3.022 6.687 6.836 6.687ZM58.017 6.32c-20.853 0-33.93 14.217-33.93 36.953 0 22.736 13.076 36.903 33.93 36.903 20.804 0 33.882-14.167 33.882-36.903 0-22.736-13.076-36.953-33.882-36.953Zm0 10.898c12.73 0 20.854 10.105 20.854 26.055 0 15.9-8.124 26.005-20.854 26.005-12.78 0-20.853-10.105-20.853-26.005 0-15.95 8.074-26.055 20.853-26.055Zm39.084 41.658c.545 13.176 11.344 21.3 27.789 21.3 17.287 0 28.185-8.52 28.185-22.092 0-10.65-6.142-16.644-20.655-19.962l-8.223-1.883c-8.768-2.08-12.383-4.854-12.383-9.609 0-5.944 5.448-9.907 13.522-9.907 8.173 0 13.77 4.012 14.365 10.7h12.185c-.297-12.582-10.699-21.102-26.45-21.102-15.554 0-26.6 8.569-26.6 21.25 0 10.204 6.241 16.544 19.416 19.566l9.263 2.18c9.015 2.13 12.68 5.102 12.68 10.253 0 5.944-5.993 10.204-14.611 10.204-8.718 0-15.306-4.31-16.098-10.898H97.102Z"/></svg>
